X: 9800
T:Archie Neil Chisholm
R:March
C:Brenda Stubbert
S:Strathsphey & Reel society of New Hampshire 8.6
M:C|
L:1/8
K:Em
g|"Am"e2d<B A2B<G|A2e2 e2f<g|"G"B2A<B {D}G2E<D|E2G2 "Em"G,2G2g2|!
"Am"e2ddB<g "Em"e2d<B|"Am"A4 A3:|!
g|"Am"e2d<e g2f<g|{g}a2e2 e2e<a|"G"g2dg e2d<B|d2G2 "Em"G2g2|!
|1 "Am"e2d<e g2f<g|{g}a2e2 e2e<a|"G"g>ed<g "Em"e2ddB<g "Em"e2d<B|"Am"A4 A3||!
